X:1
T: Monro's Rant
C:Angus Cumming 1782
R:Strathspey
Q: 128
K:D
M:4/4
L:1/16
|:D4 F3D AD3 F3D|E4 FA3 B3A Bd3|D4 F3D AD3 F3D|E3F E3D B,4 A,3B,|
D4 F3D AD3 F3D|E4 FA3 B3A Bd3|D4 F3D AD3 F3D|E3F E3D B,4 A,3B,|
d3e d3c dA3 A3d|B3c d3e fB3 B3c|d3e d3B A3F d3B|AF3 E3D B,4 A,3B,|
d3e d3c dA3 A3d|B3c d3e fB3 B3c|d3e d3B A3F d3B|AF3 E3D B,4 A,3B,:|
